usr/share/icons/biglinux-icons-material-dark/22/actions/games-hint.svg

<svg xmlns="http://www.w3.org/2000/svg" viewBox="0 0 22 22">
  <defs id="defs3051">
    <style type="text/css" id="current-color-scheme">
      .ColorScheme-Text {
        color:#dedede;
      }
      </style>
  </defs>
 <path 
    style="fill:currentColor;fill-opacity:1;stroke:none" 
    d="M 11 3 L 11 3.0019531 C 8.00044 3.0019531 6.5 4.9881406 6.5 7.4003906 C 6.5 9.9997541 9.4140625 15 9.4140625 15 L 12.585938 14.996094 C 12.585938 14.996094 15.5 9.999751 15.5 7.4003906 C 15.5 4.9881646 14.00044 3 11 3 z M 11 4.0019531 C 13.33368 4.0019531 14.5 5.6577086 14.5 7.6679688 C 14.5 9.834169 12.234375 13.998047 12.234375 13.998047 L 9.765625 14.001953 C 9.765625 14.001953 7.5 9.8341689 7.5 7.6679688 C 7.5 5.6576788 8.66702 4.0039063 11 4.0039062 L 11 4.0019531 z M 9 16 L 9 17.5 C 9 18.331 9.669 19 10.5 19 L 11.5 19 C 12.331 19 13 18.331 13 17.5 L 13 16 L 11.5 16 L 10.5 16 L 9 16 z "
    class="ColorScheme-Text"
    />  
</svg>

<svg xmlns="http://www.w3.org/2000/svg" viewBox="0 0 22 22">
<defs id="defs3051">
<style id="current-color-scheme" type="text/css">
.ColorScheme-Text{color:#dedede}
</style>
</defs>
<path d="M11 3v.002c-3 0-4.5 1.986-4.5 4.398C6.5 10 9.414 15 9.414 15l3.172-.004S15.5 10 15.5 7.4C15.5 4.988 14 3 11 3m0 1.002c2.334 0 3.5 1.656 3.5 3.666 0 2.166-2.266 6.33-2.266 6.33l-2.468.004S7.5 9.834 7.5 7.668c0-2.01 1.167-3.664 3.5-3.664zM9 16v1.5c0 .831.669 1.5 1.5 1.5h1c.831 0 1.5-.669 1.5-1.5V16z" class="ColorScheme-Text" style="fill:currentColor;fill-opacity:1;stroke:none"/>
</svg>
